packages/kaspersky-hexa-ui-icons/src/iconsSVGs/24/ConnectionWifi2.svg

<svg width="24" height="24" viewBox="0 0 24 24" fill="none" xmlns="http://www.w3.org/2000/svg">
<path d="M8.58426 15.6432C9.3868 14.6396 10.6183 13.9996 12 13.9996C13.3817 13.9996 14.6132 14.6396 15.4157 15.6432C15.7606 16.0745 16.3899 16.1446 16.8213 15.7997C17.2526 15.4547 17.3226 14.8255 16.9777 14.3941C15.812 12.9363 14.015 11.9996 12 11.9996C9.98495 11.9996 8.18802 12.9363 7.02226 14.3941C6.67734 14.8255 6.74739 15.4547 7.17872 15.7997C7.61006 16.1446 8.23933 16.0745 8.58426 15.6432Z" fill="black"/>
<path d="M11.9999 20.1957C13.1472 20.1957 14.0773 19.2656 14.0773 18.1183C14.0773 16.971 13.1472 16.0409 11.9999 16.0409C10.8526 16.0409 9.92252 16.971 9.92252 18.1183C9.92252 19.2656 10.8526 20.1957 11.9999 20.1957Z" fill="black"/>
<circle cx="12.0003" cy="18.1174" r="2.0774" fill="black"/>
<g opacity="0.2">
<path d="M3.28455 9.3185C5.54474 7.14147 8.61528 5.80432 12.0002 5.80432C15.3851 5.80432 18.4557 7.14147 20.7159 9.3185C21.1136 9.70163 21.7467 9.68977 22.1298 9.292C22.513 8.89422 22.5011 8.26117 22.1033 7.87803C19.4854 5.35648 15.923 3.80432 12.0002 3.80432C8.07736 3.80432 4.51496 5.35648 1.89709 7.87803C1.49932 8.26117 1.48745 8.89422 1.87059 9.292C2.25373 9.68977 2.88678 9.70163 3.28455 9.3185Z" fill="black"/>
<path d="M12.0002 9.90723C9.57732 9.90723 7.39357 10.9242 5.84968 12.5574C5.47028 12.9587 4.83737 12.9765 4.43603 12.5971C4.03468 12.2177 4.01689 11.5848 4.39629 11.1835C6.30222 9.1673 9.00487 7.90723 12.0002 7.90723C14.9956 7.90723 17.6982 9.1673 19.6041 11.1835C19.9835 11.5848 19.9657 12.2177 19.5644 12.5971C19.1631 12.9765 18.5301 12.9587 18.1507 12.5574C16.6069 10.9242 14.4231 9.90723 12.0002 9.90723Z" fill="black"/>
<path d="M12.0004 13.9988C10.6187 13.9988 9.38719 14.6387 8.58465 15.6423C8.23973 16.0737 7.61045 16.1437 7.17912 15.7988C6.74778 15.4539 6.67773 14.8246 7.02265 14.3933C8.18841 12.9355 9.98534 11.9988 12.0004 11.9988C14.0154 11.9988 15.8124 12.9355 16.9781 14.3933C17.323 14.8246 17.253 15.4539 16.8216 15.7988C16.3903 16.1437 15.761 16.0737 15.4161 15.6423C14.6136 14.6387 13.382 13.9988 12.0004 13.9988Z" fill="black"/>
</g>
</svg>

<svg xmlns="http://www.w3.org/2000/svg" width="24" height="24" fill="none" viewBox="0 0 24 24"><g fill="#000"><path fill-rule="evenodd" d="M11.9997 13.9996c-1.3817 0-2.6132.64-3.4157 1.6436-.345.4313-.9742.5014-1.4056.1565s-.5014-.9742-.1564-1.4056c1.1657-1.4578 2.9626-2.3945 4.9777-2.3945s3.812.9367 4.9777 2.3945c.3449.4314.2749 1.0606-.1564 1.4056s-1.0607.2748-1.4056-.1565c-.8025-1.0036-2.034-1.6436-3.4157-1.6436m2.0773 4.1187c0 1.1473-.9301 2.0774-2.0774 2.0774s-2.0774-.9301-2.0774-2.0774.9301-2.0774 2.0774-2.0774 2.0774.9301 2.0774 2.0774"/><circle cx="12" cy="18" r="2"/></g></svg>
